P3
8 8
255
18 32 78   18 32 78   232 154 45  232 154 45  22 137 118  22 137 118  196 52 91   196 52 91
18 32 78   18 32 78   232 154 45  232 154 45  22 137 118  22 137 118  196 52 91   196 52 91
232 154 45 232 154 45  22 137 118  22 137 118  196 52 91 196 52 91  18 32 78    18 32 78
232 154 45 232 154 45  22 137 118  22 137 118  196 52 91 196 52 91  18 32 78    18 32 78
22 137 118 22 137 118  196 52 91   196 52 91   18 32 78  18 32 78  232 154 45  232 154 45
22 137 118 22 137 118  196 52 91   196 52 91   18 32 78  18 32 78  232 154 45  232 154 45
196 52 91  196 52 91   18 32 78    18 32 78    232 154 45 232 154 45 22 137 118 22 137 118
196 52 91  196 52 91   18 32 78    18 32 78    232 154 45 232 154 45 22 137 118 22 137 118
